src/assets/icons/academic-cap.svg

<svg width="24" height="24" viewBox="0 0 24 24" fill="none" xmlns="http://www.w3.org/2000/svg">
<path d="M11.7003 2.80529C11.8917 2.72164 12.1094 2.72164 12.3008 2.80529C16.0197 4.43011 19.5442 6.41637 22.83 8.71956C23.0678 8.88623 23.188 9.1752 23.1386 9.46135C23.0892 9.7475 22.879 9.97941 22.5991 10.0567C21.9142 10.2457 21.2352 10.4494 20.5623 10.6663C17.8312 11.5471 15.2023 12.6554 12.6976 13.9688L12.6944 13.9705C12.5808 14.0301 12.4675 14.09 12.3545 14.1504C12.1336 14.2684 11.8684 14.2684 11.6476 14.1504C11.5334 14.0895 11.4191 14.0289 11.3044 13.9688C10.0659 13.3193 8.79707 12.7201 7.50049 12.1736V11.95C7.50049 11.8186 7.56791 11.702 7.67222 11.6389C9.17734 10.727 10.7299 9.88565 12.3252 9.11936C12.6986 8.94002 12.8559 8.49195 12.6765 8.11858C12.4972 7.7452 12.0491 7.58791 11.6758 7.76725C10.0365 8.55463 8.44134 9.41909 6.89498 10.3559C6.4416 10.6306 6.13681 11.0801 6.03656 11.5838C5.18164 11.2549 4.31548 10.9486 3.43878 10.6659C2.76595 10.4489 2.08693 10.2457 1.40203 10.0567C1.12211 9.9794 0.911949 9.74749 0.862528 9.46134C0.813107 9.17519 0.933312 8.88622 1.1711 8.71955C4.45694 6.41636 7.98146 4.43011 11.7003 2.80529Z" fill="#A685FA"/>
<path d="M13.0614 15.4734C15.5002 14.1703 18.0626 13.0687 20.7263 12.1906C20.8605 13.6054 20.9462 15.0343 20.9818 16.4755C20.9894 16.7847 20.8064 17.0669 20.5209 17.1861C17.6698 18.3764 14.9579 19.834 12.4164 21.5277C12.1646 21.6955 11.8365 21.6955 11.5846 21.5277C9.04316 19.834 6.33122 18.3764 3.48008 17.1861C3.19465 17.0669 3.01165 16.7847 3.01927 16.4755C3.05478 15.0342 3.1405 13.6052 3.27476 12.1903C4.19576 12.4938 5.10464 12.8242 6.00049 13.1803V14.4507C5.55214 14.71 5.25049 15.1948 5.25049 15.75C5.25049 16.2453 5.49057 16.6846 5.86071 16.9577C5.77119 17.3383 5.63871 17.7108 5.46326 18.0675C5.91595 18.2811 6.36477 18.5017 6.80959 18.7289C7.06292 18.2137 7.24661 17.6729 7.36063 17.1207C7.88498 16.887 8.25049 16.3612 8.25049 15.75C8.25049 15.1948 7.94884 14.71 7.50049 14.4507V13.8059C8.67189 14.3177 9.81933 14.8743 10.9407 15.4734C11.6032 15.8274 12.3988 15.8274 13.0614 15.4734Z" fill="#A685FA"/>
<path d="M4.46271 19.4623C4.88184 19.0432 5.21551 18.5711 5.46326 18.0675C5.91595 18.2811 6.36477 18.5017 6.80959 18.7289C6.49103 19.3768 6.06213 19.9842 5.52337 20.523C5.23048 20.8158 4.7556 20.8158 4.46271 20.523C4.16982 20.2301 4.16982 19.7552 4.46271 19.4623Z" fill="#A685FA"/>
</svg>

<svg xmlns="http://www.w3.org/2000/svg" width="24" height="24" fill="#a685fa" xmlns:v="https://vecta.io/nano"><path d="M11.7 2.805a.75.75 0 0 1 .601 0A60.65 60.65 0 0 1 22.83 8.72a.75.75 0 0 1-.231 1.337 49.95 49.95 0 0 0-2.037.61 49.94 49.94 0 0 0-7.865 3.303l-.003.002-.34.18a.75.75 0 0 1-.707 0l-.343-.182A50.03 50.03 0 0 0 7.5 12.174v-.224c0-.131.067-.248.172-.311l4.653-2.52a.75.75 0 1 0-.649-1.352 56.12 56.12 0 0 0-4.781 2.589c-.453.275-.758.724-.858 1.228l-2.598-.918a49.75 49.75 0 0 0-2.037-.609.75.75 0 0 1-.231-1.337C4.457 6.416 7.981 4.43 11.7 2.805z"/><path d="M13.061 15.473a48.45 48.45 0 0 1 7.665-3.283l.256 4.285a.75.75 0 0 1-.461.711c-2.851 1.19-5.563 2.648-8.105 4.342a.75.75 0 0 1-.832 0 47.87 47.87 0 0 0-8.105-4.342.75.75 0 0 1-.461-.711l.255-4.285L6 13.18v1.27a1.5 1.5 0 0 0-.14 2.507c-.09.381-.222.753-.397 1.11l1.346.661c.253-.515.437-1.056.551-1.608a1.5 1.5 0 0 0 .14-2.67v-.645l3.44 1.668a2.25 2.25 0 0 0 2.121 0z"/><path d="M4.463 19.462c.419-.419.753-.891 1.001-1.395l1.346.661a6.74 6.74 0 0 1-1.286 1.794.75.75 0 1 1-1.061-1.061z"/></svg>
